X: 5391
T: Bucks Of Westmeath, The
R: jig
M: 6/8
K: Gmajor
d3 BdB|GBd gdB|d3 BdB|A2B c2e|d3 BdB|GBd gdB|cac BgB|A2B c2e:|
gag gdB|gag gba|gag gdB|A2B c2e|gag gdB|gfe dcB|cac BgB|A2B c2e:|
dBA G2B|dBG Bdg|dBG G2B|A2B c2e|dBG GBd|gfe dcB|cac BgB|A2B c2e:|

